assets/Dodo/Flat/dodo_flat.svg

<svg width="32" height="32" viewBox="0 0 32 32" fill="none" xmlns="http://www.w3.org/2000/svg">
<path d="M18 29H17V27H15V29H13C12.45 29 12 29.45 12 30H19C19 29.45 18.55 29 18 29Z" fill="#FF822D"/>
<path d="M30 15.45C30 17.3554 28.4554 18.9 26.55 18.9C24.6446 18.9 23.1 17.3554 23.1 15.45C23.1 13.5446 24.6446 12 26.55 12C28.4554 12 30 13.5446 30 15.45Z" fill="#636363"/>
<path d="M14.94 27H17.06C17.58 27 18 26.58 18 26.06V23H14V26.06C14 26.58 14.42 27 14.94 27Z" fill="#636363"/>
<path d="M7.11 6.38004C7.11 3.97004 9.06 2.01004 11.47 2.00004C13.82 1.99004 15.79 3.88004 15.87 6.23004C15.9 7.12004 15.67 7.96004 15.24 8.66004L13.05 12.3C12.9 12.56 13.16 12.87 13.45 12.76C14.86 12.2 16.39 11.89 18 11.89C20.7327 11.89 23.2231 12.8673 25.2499 14.4096C25.6552 13.5755 26.5108 13 27.5 13C28.88 13 30 14.12 30 15.5C30 16.49 29.77 17.46 29.33 18.34L29.22 18.57C29.07 18.86 29 19.17 29 19.49V20.69C29 20.92 28.75 21.08 28.54 20.97L28.05 20.72C27.41 20.4 27 19.74 27 19.02V20.31C27 22.9 24.9 25 22.31 25H22V26.06C22 26.58 21.58 27 21.06 27H18.94C18.42 27 18 26.58 18 26.06V25H14.16C10.21 25 7 21.79 7 17.84C7 16.55 7.34 15.29 7.97 14.17L10.65 9.50004L11.28 9.38004V9.31004H8.23C7.53 8.53004 7.11 7.50004 7.11 6.38004Z" fill="#9B9B9B"/>
<path d="M6.19999 5H5.29999L6 10L10.46 10C12.39 10 13.95 8.42 13.92 6.49C13.89 4.65 12.4 3.13 10.56 3.08C9.47999 3.04 8.49999 3.51 7.84999 4.27C7.43999 4.74 6.82999 5 6.19999 5Z" fill="#D3D3D3"/>
<path d="M20.01 20.32C19.99 20.49 20.12 20.63 20.28 20.63H21.76C22.04 20.63 22.25 20.88 22.2 21.15C21.96 22.56 20.73 23.63 19.25 23.63C16.9 23.63 15 21.73 15 19.38V17.92C15.05 16.23 16.49 14.9 18.2 15.01C19.72 15.11 20.92 16.31 21 17.83C21.05 18.74 20.7 19.57 20.1 20.15C20.05 20.2 20.02 20.26 20.01 20.32Z" fill="#D3D3D3"/>
<path d="M9.70996 7.20996C10.1242 7.20996 10.46 6.87417 10.46 6.45996C10.46 6.04575 10.1242 5.70996 9.70996 5.70996C9.29575 5.70996 8.95996 6.04575 8.95996 6.45996C8.95996 6.87417 9.29575 7.20996 9.70996 7.20996Z" fill="#1C1C1C"/>
<path d="M22 29H21V27H19V29H17C16.45 29 16 29.45 16 30H23C23 29.45 22.55 29 22 29Z" fill="#FFB02E"/>
<path d="M2 8.3C2 9.35 2.59 10.3 3.52 10.76C3.74 10.87 4 10.71 4 10.46V10H6V5.7C6 5.31 5.69 5 5.3 5C3.48 5 2 6.48 2 8.3Z" fill="#FFB02E"/>
</svg>

<svg xmlns="http://www.w3.org/2000/svg" width="32" height="32" fill="none"><path fill="#FF822D" d="M18 29h-1v-2h-2v2h-2c-.55 0-1 .45-1 1h7c0-.55-.45-1-1-1Z"/><path fill="#636363" d="M30 15.45a3.45 3.45 0 1 1-6.9 0 3.45 3.45 0 0 1 6.9 0ZM14.94 27h2.12c.52 0 .94-.42.94-.94V23h-4v3.06c0 .52.42.94.94.94Z"/><path fill="#9B9B9B" d="M7.11 6.38A4.38 4.38 0 0 1 11.47 2c2.35-.01 4.32 1.88 4.4 4.23.03.89-.2 1.73-.63 2.43l-2.19 3.64c-.15.26.11.57.4.46 1.41-.56 2.94-.87 4.55-.87 2.733 0 5.223.977 7.25 2.52A2.501 2.501 0 0 1 30 15.5c0 .99-.23 1.96-.67 2.84l-.11.23c-.15.29-.22.6-.22.92v1.2c0 .23-.25.39-.46.28l-.49-.25c-.64-.32-1.05-.98-1.05-1.7v1.29C27 22.9 24.9 25 22.31 25H22v1.06c0 .52-.42.94-.94.94h-2.12c-.52 0-.94-.42-.94-.94V25h-3.84C10.21 25 7 21.79 7 17.84c0-1.29.34-2.55.97-3.67l2.68-4.67.63-.12v-.07H8.23c-.7-.78-1.12-1.81-1.12-2.93Z"/><path fill="#D3D3D3" d="M6.2 5h-.9l.7 5h4.46a3.46 3.46 0 0 0 3.46-3.51c-.03-1.84-1.52-3.36-3.36-3.41-1.08-.04-2.06.43-2.71 1.19-.41.47-1.02.73-1.65.73ZM20.01 20.32c-.02.17.11.31.27.31h1.48c.28 0 .49.25.44.52a2.99 2.99 0 0 1-2.95 2.48c-2.35 0-4.25-1.9-4.25-4.25v-1.46a3.006 3.006 0 0 1 3.2-2.91c1.52.1 2.72 1.3 2.8 2.82.05.91-.3 1.74-.9 2.32-.05.05-.08.11-.09.17Z"/><path fill="#1C1C1C" d="M9.71 7.21a.75.75 0 1 0 0-1.5.75.75 0 0 0 0 1.5Z"/><path fill="#FFB02E" d="M22 29h-1v-2h-2v2h-2c-.55 0-1 .45-1 1h7c0-.55-.45-1-1-1ZM2 8.3c0 1.05.59 2 1.52 2.46.22.11.48-.05.48-.3V10h2V5.7c0-.39-.31-.7-.7-.7C3.48 5 2 6.48 2 8.3Z"/></svg>
